Yaru++/mimetypes/48/text-x-typescript.svg

<svg height="48" viewBox="0 0 12.699375 12.699375" width="48" xmlns="http://www.w3.org/2000/svg" xmlns:xlink="http://www.w3.org/1999/xlink"><linearGradient id="a" gradientTransform="matrix(0 -.02997086 .02997 0 -3.039509 13.625372)" gradientUnits="userSpaceOnUse" x1="459.03448" x2="35.310345" y1="419.23337" y2="207.36522"><stop offset="0" stop-color="#f2f2f2"/><stop offset="1" stop-color="#f9f9f9"/></linearGradient><linearGradient id="b" gradientUnits="userSpaceOnUse" x1="344" x2="344" y1="62" y2="106"><stop offset="0" stop-color="#fff"/><stop offset=".125" stop-color="#fff" stop-opacity=".098039"/><stop offset=".92500001" stop-color="#fff" stop-opacity=".098039"/><stop offset="1" stop-color="#fff" stop-opacity=".498039"/></linearGradient><clipPath id="c"><path d="m335.73108 62c-8.82418 0-9.77365.90635-9.7304 9.74838v12.25162 12.25162c-.0433 8.84203.90622 9.74838 9.7304 9.74838h16.53919c8.82418 0 9.7304-.90625 9.7304-9.74838v-12.25162-12.25162c0-8.84213-.90622-9.74838-9.7304-9.74838z"/></clipPath><path d="m4.1621982.39685644c-.5881821 0-1.0513178.013541-1.4323995.077511-.3810845.063969-.692923.1839555-.9213477.4118407-.2284221.22788556-.3489841.53958346-.4123566.92082876-.063373.3812456-.075744.8453924-.07286 1.4349837v3.2399532 3.2415027c-.00286.5886855.00955 1.0525975.07286 1.4334335.063373.381246.1839345.692944.4123566.920829.2284247.227885.5402632.347873.9213477.411841.3810844.06397.8442174.07751 1.4323995.07751h4.3757443c.5881821 0 1.0510744-.01352 1.4313677-.07751.3802928-.064.6911788-.18439.9187598-.412357.227583-.227967.347434-.539443.411325-.920313.06389-.380868.07751-.844073.07751-1.4334335v-3.2415027-3.2415031c0-.5893606-.01363-1.0525644-.07751-1.4334338-.06389-.3808691-.183742-.6923442-.411325-.92031196-.227581-.2279677-.538467-.3483609-.9187598-.4123576-.3802933-.063997-.8431856-.077511-1.4313677-.077511z" opacity=".1"/><path d="m4.1623596.39685644c-2.3346161 0-2.5858177.2397933-2.574375 2.57913196v3.2414148 3.2414149c-.0114559 2.3393389.2397589 2.5791319 2.574375 2.5791319h4.3757787c2.3346157 0 2.5743747-.239767 2.5743747-2.5791319v-3.2414149-3.2414148c0-2.33936506-.239759-2.57913196-2.5743747-2.57913196z" fill="none" opacity=".2" stroke="#000" stroke-width=".529141"/><path d="m4.1623596.39685644c-2.3346161 0-2.5858177.2397933-2.574375 2.57913196v3.2414148 3.2414149c-.0114559 2.3393389.2397589 2.5791319 2.574375 2.5791319h4.3757787c2.3346157 0 2.5743747-.239767 2.5743747-2.5791319v-3.2414149-3.2414148c0-2.33936506-.239759-2.57913196-2.5743747-2.57913196z" fill="url(#a)"/><path d="m8.3090363 4.3348211c.2107329.052681.371417.1461936.5189308.2989777.076392.081657.1896599.2304884.1988802.2660493.00265.01053-.3582467.2528816-.5768824.38854-.00791.00526-.039514-.028976-.075074-.08166-.1066831-.1554135-.218636-.2225853-.389858-.2344407-.2515614-.0171177-.4135631.1145881-.4122455.3345412 0 .064537.00923.1027327.035561.1554139.055316.1145881.158049.1830747.4807346.3226859.5940053.255514.8482018.4241009 1.0062511.6638095.1764894.2673695.216003.6941029.096147 1.0115211-.131708.3450764-.4583439.5795175-.9180057.6572244-.1422463.0250284-.4794173.0210598-.6322014-.0065878-.333221-.059269-.6493217-.2239032-.8442491-.4399063-.0763921-.0842921-.2252208-.3042453-.2160005-.3200507.00394-.00527.038193-.026351.076389-.048731.036878-.021086.1764893-.1014177.3081977-.1778071l.2383916-.1382938.050049.073757c.069807.1066826.2225883.2528786.3147831.3016098.2647344.1396114.6282487.119856.8073734-.040828.076389-.069804.1080002-.1422436.1080002-.2489289 0-.096147-.011853-.1382936-.061904-.2107329-.0645369-.0921977-.1962453-.1699047-.5702948-.3319064-.4280536-.1843896-.6124459-.2989776-.7810328-.4807348-.0974624-.1053678-.1896598-.273952-.2278532-.4148807-.0316109-.1172205-.0395136-.4109306-.0144984-.5294686.0882421-.4135631.4003927-.7020056.8508343-.7876153.1461962-.027658.486005-.017118.6295662.018441zm-1.9479651.3463913.00265.3398089h-.5400071-.5400065v1.5344019 1.534402h-.3819523-.3819548v-1.534402-1.5344019h-.5400066-.5400039v-.3332237c0-.1843923.00394-.3384886.00923-.3424413.00394-.00526.6611771-.00791 1.4580126-.00659l1.4501073.00394z" fill="#1a7fd4" stroke-width=".026457"/><path d="m1.5878047 6.2174032v3.241503c-.011456 2.3393378.2397774 2.5790438 2.5743935 2.5790438h4.3757443c2.3346155 0 2.5743935-.239679 2.5743935-2.5790438v-3.241503z" fill="#fff" opacity=".2"/><path d="m6.3500704.39685644v11.64109356h2.1878721c2.3346155 0 2.5743935-.239679 2.5743935-2.5790438v-3.241503-3.2415029c0-2.33936506-.239778-2.57904386-2.5743935-2.57904386z" fill="#fff" opacity=".1"/><path clip-path="url(#c)" d="m335.73108 62c-8.82418 0-9.77365.90635-9.7304 9.74838v12.25162 12.25162c-.0433 8.84203.90622 9.74838 9.7304 9.74838h16.53919c8.82418 0 9.7304-.90625 9.7304-9.74838v-12.25162-12.25162c0-8.84213-.90622-9.74838-9.7304-9.74838z" fill="none" opacity=".4" stroke="url(#b)" stroke-width="2" transform="matrix(.26457031 0 0 .26457031 -84.662116 -16.006503)"/></svg>

<?xml version="1.0" encoding="UTF-8" standalone="no"?>
<svg
   xmlns:dc="http://purl.org/dc/elements/1.1/"
   xmlns:cc="http://creativecommons.org/ns#"
   xmlns:rdf="http://www.w3.org/1999/02/22-rdf-syntax-ns#"
   xmlns:svg="http://www.w3.org/2000/svg"
   xmlns="http://www.w3.org/2000/svg"
   xmlns:xlink="http://www.w3.org/1999/xlink"
   xmlns:sodipodi="http://sodipodi.sourceforge.net/DTD/sodipodi-0.dtd"
   xmlns:inkscape="http://www.inkscape.org/namespaces/inkscape"
   width="48"
   height="48"
   version="1.1"
   viewBox="0 0 12.699375 12.699375"
   id="svg43"
   sodipodi:docname="text-x-typescript.svg"
   inkscape:version="0.92.4 (5da689c313, 2019-01-14)">
  <metadata
     id="metadata47">
    <rdf:RDF>
      <cc:Work
         rdf:about="">
        <dc:format>image/svg+xml</dc:format>
        <dc:type
           rdf:resource="http://purl.org/dc/dcmitype/StillImage" />
        <dc:title></dc:title>
      </cc:Work>
    </rdf:RDF>
  </metadata>
  <sodipodi:namedview
     pagecolor="#ffffff"
     bordercolor="#666666"
     borderopacity="1"
     objecttolerance="10"
     gridtolerance="10"
     guidetolerance="10"
     inkscape:pageopacity="0"
     inkscape:pageshadow="2"
     inkscape:window-width="1222"
     inkscape:window-height="948"
     id="namedview45"
     showgrid="false"
     inkscape:zoom="13.854167"
     inkscape:cx="24"
     inkscape:cy="24"
     inkscape:window-x="83"
     inkscape:window-y="176"
     inkscape:window-maximized="0"
     inkscape:current-layer="svg43" />
  <defs
     id="defs17">
    <linearGradient
       id="linearGradient4226"
       x1="529.65503"
       x2="-35.310001"
       y1="401.58401"
       y2="119.093"
       gradientTransform="matrix(0,-0.11988932,0.11988589,0,0.36277975,292.5483)"
       gradientUnits="userSpaceOnUse">
      <stop
         style="stop-color:#f2f2f2"
         offset="0"
         id="stop2" />
      <stop
         style="stop-color:#f9f9f9"
         offset="1"
         id="stop4" />
    </linearGradient>
    <linearGradient
       id="linearGradient4358"
       x1="88"
       x2="488"
       y1="88"
       y2="488"
       gradientUnits="userSpaceOnUse">
      <stop
         style="stop-color:#000000;stop-opacity:.58823532"
         offset="0"
         id="stop7" />
      <stop
         style="stop-color:#000000;stop-opacity:0"
         offset=".88"
         id="stop9" />
      <stop
         style="stop-color:#000000"
         offset="1"
         id="stop11" />
    </linearGradient>
    <filter
       id="filter4346"
       width="1.026"
       height="1.022"
       x="-0.0099999998"
       y="-0.0099999998"
       style="color-interpolation-filters:sRGB">
      <feGaussianBlur
         stdDeviation="2.12"
         id="feGaussianBlur14" />
    </filter>
    <clipPath
       clipPathUnits="userSpaceOnUse"
       id="clipPath994">
      <path
         style="color:#000000;display:inline;overflow:visible;visibility:visible;fill:#cdcdcd;fill-opacity:1;fill-rule:nonzero;stroke:none;stroke-width:2;stroke-miterlimit:4;stroke-dasharray:none;stroke-opacity:1;marker:none;enable-background:accumulate"
         d="m 335.73108,62 c -8.82418,0 -9.77365,0.90635 -9.7304,9.74838 V 84 96.25162 c -0.0433,8.84203 0.90622,9.74838 9.7304,9.74838 h 16.53919 c 8.82418,0 9.7304,-0.90625 9.7304,-9.74838 V 84 71.74838 C 362.00067,62.90625 361.09445,62 352.27027,62 Z"
         id="path996"
         inkscape:connector-curvature="0"
         sodipodi:nodetypes="scccssscsss" />
    </clipPath>
    <clipPath
       clipPathUnits="userSpaceOnUse"
       id="clipPath994-3">
      <path
         style="color:#000000;display:inline;overflow:visible;visibility:visible;fill:#cdcdcd;fill-opacity:1;fill-rule:nonzero;stroke:none;stroke-width:2;stroke-miterlimit:4;stroke-dasharray:none;stroke-opacity:1;marker:none;enable-background:accumulate"
         d="m 335.73108,62 c -8.82418,0 -9.77365,0.90635 -9.7304,9.74838 V 84 96.25162 c -0.0433,8.84203 0.90622,9.74838 9.7304,9.74838 h 16.53919 c 8.82418,0 9.7304,-0.90625 9.7304,-9.74838 V 84 71.74838 C 362.00067,62.90625 361.09445,62 352.27027,62 Z"
         id="path996-6"
         inkscape:connector-curvature="0"
         sodipodi:nodetypes="scccssscsss" />
    </clipPath>
    <clipPath
       clipPathUnits="userSpaceOnUse"
       id="clipPath994-7">
      <path
         style="color:#000000;display:inline;overflow:visible;visibility:visible;fill:#cdcdcd;fill-opacity:1;fill-rule:nonzero;stroke:none;stroke-width:2;stroke-miterlimit:4;stroke-dasharray:none;stroke-opacity:1;marker:none;enable-background:accumulate"
         d="m 335.73108,62 c -8.82418,0 -9.77365,0.90635 -9.7304,9.74838 V 84 96.25162 c -0.0433,8.84203 0.90622,9.74838 9.7304,9.74838 h 16.53919 c 8.82418,0 9.7304,-0.90625 9.7304,-9.74838 V 84 71.74838 C 362.00067,62.90625 361.09445,62 352.27027,62 Z"
         id="path996-5"
         inkscape:connector-curvature="0"
         sodipodi:nodetypes="scccssscsss" />
    </clipPath>
    <clipPath
       clipPathUnits="userSpaceOnUse"
       id="clipPath994-35">
      <path
         style="color:#000000;display:inline;overflow:visible;visibility:visible;fill:#cdcdcd;fill-opacity:1;fill-rule:nonzero;stroke:none;stroke-width:2;stroke-miterlimit:4;stroke-dasharray:none;stroke-opacity:1;marker:none;enable-background:accumulate"
         d="m 335.73108,62 c -8.82418,0 -9.77365,0.90635 -9.7304,9.74838 V 84 96.25162 c -0.0433,8.84203 0.90622,9.74838 9.7304,9.74838 h 16.53919 c 8.82418,0 9.7304,-0.90625 9.7304,-9.74838 V 84 71.74838 C 362.00067,62.90625 361.09445,62 352.27027,62 Z"
         id="path996-62"
         inkscape:connector-curvature="0"
         sodipodi:nodetypes="scccssscsss" />
    </clipPath>
    <clipPath
       clipPathUnits="userSpaceOnUse"
       id="clipPath994-9">
      <path
         style="color:#000000;display:inline;overflow:visible;visibility:visible;fill:#cdcdcd;fill-opacity:1;fill-rule:nonzero;stroke:none;stroke-width:2;stroke-miterlimit:4;stroke-dasharray:none;stroke-opacity:1;marker:none;enable-background:accumulate"
         d="m 335.73108,62 c -8.82418,0 -9.77365,0.90635 -9.7304,9.74838 V 84 96.25162 c -0.0433,8.84203 0.90622,9.74838 9.7304,9.74838 h 16.53919 c 8.82418,0 9.7304,-0.90625 9.7304,-9.74838 V 84 71.74838 C 362.00067,62.90625 361.09445,62 352.27027,62 Z"
         id="path996-1"
         inkscape:connector-curvature="0"
         sodipodi:nodetypes="scccssscsss" />
    </clipPath>
    <clipPath
       clipPathUnits="userSpaceOnUse"
       id="clipPath994-2">
      <path
         style="color:#000000;display:inline;overflow:visible;visibility:visible;fill:#cdcdcd;fill-opacity:1;fill-rule:nonzero;stroke:none;stroke-width:2;stroke-miterlimit:4;stroke-dasharray:none;stroke-opacity:1;marker:none;enable-background:accumulate"
         d="m 335.73108,62 c -8.82418,0 -9.77365,0.90635 -9.7304,9.74838 V 84 96.25162 c -0.0433,8.84203 0.90622,9.74838 9.7304,9.74838 h 16.53919 c 8.82418,0 9.7304,-0.90625 9.7304,-9.74838 V 84 71.74838 C 362.00067,62.90625 361.09445,62 352.27027,62 Z"
         id="path996-7"
         inkscape:connector-curvature="0"
         sodipodi:nodetypes="scccssscsss" />
    </clipPath>
    <clipPath
       clipPathUnits="userSpaceOnUse"
       id="clipPath994-0">
      <path
         style="color:#000000;display:inline;overflow:visible;visibility:visible;fill:#cdcdcd;fill-opacity:1;fill-rule:nonzero;stroke:none;stroke-width:2;stroke-miterlimit:4;stroke-dasharray:none;stroke-opacity:1;marker:none;enable-background:accumulate"
         d="m 335.73108,62 c -8.82418,0 -9.77365,0.90635 -9.7304,9.74838 V 84 96.25162 c -0.0433,8.84203 0.90622,9.74838 9.7304,9.74838 h 16.53919 c 8.82418,0 9.7304,-0.90625 9.7304,-9.74838 V 84 71.74838 C 362.00067,62.90625 361.09445,62 352.27027,62 Z"
         id="path996-9"
         inkscape:connector-curvature="0"
         sodipodi:nodetypes="scccssscsss" />
    </clipPath>
    <linearGradient
       inkscape:collect="always"
       xlink:href="#linearGradient4338"
       id="linearGradient1024"
       gradientUnits="userSpaceOnUse"
       gradientTransform="matrix(0,-0.02997086,0.02997,0,-3.0395088,13.625372)"
       x1="459.03448"
       y1="419.23337"
       x2="35.310345"
       y2="207.36522" />
    <linearGradient
       inkscape:collect="always"
       id="linearGradient4338">
      <stop
         style="stop-color:#f2f2f2;stop-opacity:1"
         offset="0"
         id="stop4340" />
      <stop
         style="stop-color:#f9f9f9;stop-opacity:1"
         offset="1"
         id="stop4342" />
    </linearGradient>
    <linearGradient
       inkscape:collect="always"
       xlink:href="#linearGradient927"
       id="linearGradient1004"
       x1="344"
       y1="62"
       x2="344"
       y2="106"
       gradientUnits="userSpaceOnUse" />
    <linearGradient
       inkscape:collect="always"
       id="linearGradient927">
      <stop
         style="stop-color:#ffffff;stop-opacity:1;"
         offset="0"
         id="stop923" />
      <stop
         id="stop933"
         offset="0.125"
         style="stop-color:#ffffff;stop-opacity:0.09803922" />
      <stop
         id="stop931"
         offset="0.92500001"
         style="stop-color:#ffffff;stop-opacity:0.09803922" />
      <stop
         style="stop-color:#ffffff;stop-opacity:0.49803922"
         offset="1"
         id="stop925" />
    </linearGradient>
    <clipPath
       clipPathUnits="userSpaceOnUse"
       id="clipPath994-0-3">
      <path
         style="color:#000000;display:inline;overflow:visible;visibility:visible;fill:#cdcdcd;fill-opacity:1;fill-rule:nonzero;stroke:none;stroke-width:2;stroke-miterlimit:4;stroke-dasharray:none;stroke-opacity:1;marker:none;enable-background:accumulate"
         d="m 335.73108,62 c -8.82418,0 -9.77365,0.90635 -9.7304,9.74838 V 84 96.25162 c -0.0433,8.84203 0.90622,9.74838 9.7304,9.74838 h 16.53919 c 8.82418,0 9.7304,-0.90625 9.7304,-9.74838 V 84 71.74838 C 362.00067,62.90625 361.09445,62 352.27027,62 Z"
         id="path996-9-6"
         inkscape:connector-curvature="0"
         sodipodi:nodetypes="scccssscsss" />
    </clipPath>
  </defs>
  <path
     style="color:#000000;font-style:normal;font-variant:normal;font-weight:normal;font-stretch:normal;font-size:medium;line-height:normal;font-family:sans-serif;font-variant-ligatures:normal;font-variant-position:normal;font-variant-caps:normal;font-variant-numeric:normal;font-variant-alternates:normal;font-feature-settings:normal;text-indent:0;text-align:start;text-decoration:none;text-decoration-line:none;text-decoration-style:solid;text-decoration-color:#000000;letter-spacing:normal;word-spacing:normal;text-transform:none;writing-mode:lr-tb;direction:ltr;text-orientation:mixed;dominant-baseline:auto;baseline-shift:baseline;text-anchor:start;white-space:normal;shape-padding:0;clip-rule:nonzero;display:inline;overflow:visible;visibility:visible;opacity:0.1;isolation:auto;mix-blend-mode:normal;color-interpolation:sRGB;color-interpolation-filters:linearRGB;solid-color:#000000;solid-opacity:1;vector-effect:none;fill:#000000;fill-opacity:1;fill-rule:nonzero;stroke:none;stroke-width:0.52914065;stroke-linecap:butt;stroke-linejoin:miter;stroke-miterlimit:4;stroke-dasharray:none;stroke-dashoffset:0;stroke-opacity:1;marker:none;color-rendering:auto;image-rendering:auto;shape-rendering:auto;text-rendering:auto;enable-background:accumulate"
     d="m 4.1621982,0.39685644 c -0.5881821,0 -1.0513178,0.013541 -1.4323995,0.077511 -0.3810845,0.063969 -0.692923,0.1839555 -0.9213477,0.4118407 C 1.5800289,1.1140937 1.4594669,1.4257916 1.3960944,1.8070369 1.3327214,2.1882825 1.3203504,2.6524293 1.3232344,3.2420206 v 3.2399532 3.2415027 c -0.00286,0.5886855 0.00955,1.0525975 0.07286,1.4334335 0.063373,0.381246 0.1839345,0.692944 0.4123566,0.920829 0.2284247,0.227885 0.5402632,0.347873 0.9213477,0.411841 0.3810844,0.06397 0.8442174,0.07751 1.4323995,0.07751 h 4.3757443 c 0.5881821,0 1.0510744,-0.01352 1.4313677,-0.07751 0.3802928,-0.064 0.6911788,-0.18439 0.9187598,-0.412357 0.227583,-0.227967 0.347434,-0.539443 0.411325,-0.920313 0.06389,-0.380868 0.07751,-0.844073 0.07751,-1.4334335 V 6.4819738 3.2404707 c 0,-0.5893606 -0.01363,-1.0525644 -0.07751,-1.4334338 C 11.235505,1.4261678 11.115653,1.1146927 10.88807,0.88672494 10.660489,0.65875724 10.349603,0.53836404 9.9693102,0.47436734 9.5890169,0.41037034 9.1261246,0.39685634 8.5379425,0.39685634 Z"
     id="path1020"
     inkscape:connector-curvature="0"
     sodipodi:nodetypes="sccsccccccsscccscsccsss" />
  <path
     style="color:#000000;display:inline;overflow:visible;visibility:visible;opacity:0.2;fill:none;fill-opacity:1;fill-rule:nonzero;stroke:#000000;stroke-width:0.52914065;stroke-miterlimit:4;stroke-dasharray:none;stroke-opacity:1;marker:none;enable-background:accumulate"
     d="m 4.1623596,0.39685644 c -2.3346161,0 -2.5858177,0.2397933 -2.574375,2.57913196 V 6.2174032 9.4588181 C 1.5765287,11.798157 1.8277435,12.03795 4.1623596,12.03795 h 4.3757787 c 2.3346157,0 2.5743747,-0.239767 2.5743747,-2.5791319 V 6.2174032 2.9759884 c 0,-2.33936506 -0.239759,-2.57913196 -2.5743747,-2.57913196 z"
     id="path958"
     inkscape:connector-curvature="0"
     sodipodi:nodetypes="scccssscsss" />
  <path
     style="color:#000000;display:inline;overflow:visible;visibility:visible;fill:url(#linearGradient1024);fill-opacity:1;fill-rule:nonzero;stroke:none;stroke-width:0.26457033;marker:none;enable-background:accumulate"
     d="m 4.1623596,0.39685644 c -2.3346161,0 -2.5858177,0.2397933 -2.574375,2.57913196 V 6.2174032 9.4588181 C 1.5765287,11.798157 1.8277435,12.03795 4.1623596,12.03795 h 4.3757787 c 2.3346157,0 2.5743747,-0.239767 2.5743747,-2.5791319 V 6.2174032 2.9759884 c 0,-2.33936506 -0.239759,-2.57913196 -2.5743747,-2.57913196 z"
     id="path964"
     inkscape:connector-curvature="0"
     sodipodi:nodetypes="scccssscsss" />
  <path
     sodipodi:nodetypes="cccccccccccccccccccccscccccccccccccccccccscccc"
     style="display:inline;fill:#1a7fd4;stroke-width:0.02645703;enable-background:new"
     inkscape:connector-curvature="0"
     class="st1"
     d="m 8.3090363,4.3348211 c 0.2107329,0.052681 0.371417,0.1461936 0.5189308,0.2989777 0.076392,0.081657 0.1896599,0.2304884 0.1988802,0.2660493 0.00265,0.01053 -0.3582467,0.2528816 -0.5768824,0.38854 -0.00791,0.00526 -0.039514,-0.028976 -0.075074,-0.08166 C 8.2682078,5.0513146 8.1562549,4.9841428 7.9850329,4.9722874 7.7334715,4.9551697 7.5714698,5.0868755 7.5727874,5.3068286 c 0,0.064537 0.00923,0.1027327 0.035561,0.1554139 0.055316,0.1145881 0.158049,0.1830747 0.4807346,0.3226859 0.5940053,0.255514 0.8482018,0.4241009 1.0062511,0.6638095 0.1764894,0.2673695 0.216003,0.6941029 0.096147,1.0115211 C 9.0597731,7.8053354 8.7331372,8.0397765 8.2734754,8.1174834 8.1312291,8.1425118 7.7940581,8.1385432 7.641274,8.1108956 7.308053,8.0516266 6.9919523,7.8869924 6.7970249,7.6709893 6.7206328,7.5866972 6.5718041,7.366744 6.5810244,7.3509386 c 0.00394,-0.00527 0.038193,-0.026351 0.076389,-0.048731 0.036878,-0.021086 0.1764893,-0.1014177 0.3081977,-0.1778071 l 0.2383916,-0.1382938 0.050049,0.073757 c 0.069807,0.1066826 0.2225883,0.2528786 0.3147831,0.3016098 0.2647344,0.1396114 0.6282487,0.119856 0.8073734,-0.040828 0.076389,-0.069804 0.1080002,-0.1422436 0.1080002,-0.2489289 0,-0.096147 -0.011853,-0.1382936 -0.061904,-0.2107329 C 8.3577675,6.768786 8.2260591,6.691079 7.8520096,6.5290773 7.423956,6.3446877 7.2395637,6.2300997 7.0709768,6.0483425 6.9735144,5.9429747 6.881317,5.7743905 6.8431236,5.6334618 6.8115127,5.5162413 6.80361,5.2225312 6.8286252,5.1039932 6.9168673,4.6904301 7.2290179,4.4019876 7.6794595,4.3163779 c 0.1461962,-0.027658 0.486005,-0.017118 0.6295662,0.018441 z m -1.9479651,0.3463913 0.00265,0.3398089 H 5.8237141 5.2837076 v 1.5344019 1.534402 H 4.9017553 4.5198005 V 6.5554232 5.0210213 H 3.9797939 3.43979 V 4.6877976 c 0,-0.1843923 0.00394,-0.3384886 0.00923,-0.3424413 0.00394,-0.00526 0.6611771,-0.00791 1.4580126,-0.00659 l 1.4501073,0.00394 z"
     id="path18092" />
  <path
     style="color:#000000;display:inline;overflow:visible;visibility:visible;opacity:0.2;fill:#ffffff;fill-opacity:1;fill-rule:nonzero;stroke:none;stroke-width:0.26457033;marker:none;enable-background:accumulate"
     d="m 1.5878047,6.2174032 v 3.241503 C 1.5763487,11.798244 1.8275821,12.03795 4.1621982,12.03795 h 4.3757443 c 2.3346155,0 2.5743935,-0.239679 2.5743935,-2.5790438 v -3.241503 z"
     id="path1006"
     inkscape:connector-curvature="0" />
  <path
     style="color:#000000;display:inline;overflow:visible;visibility:visible;opacity:0.1;fill:#ffffff;fill-opacity:1;fill-rule:nonzero;stroke:none;stroke-width:0.26457033;marker:none;enable-background:accumulate"
     d="M 6.3500704,0.39685644 V 12.03795 h 2.1878721 c 2.3346155,0 2.5743935,-0.239679 2.5743935,-2.5790438 V 6.2174032 2.9759003 c 0,-2.33936506 -0.239778,-2.57904386 -2.5743935,-2.57904386 z"
     id="path1013"
     inkscape:connector-curvature="0" />
  <path
     transform="matrix(0.26457031,0,0,0.26457031,-84.662116,-16.006503)"
     sodipodi:nodetypes="scccssscsss"
     inkscape:connector-curvature="0"
     id="path990"
     d="m 335.73108,62 c -8.82418,0 -9.77365,0.90635 -9.7304,9.74838 V 84 96.25162 c -0.0433,8.84203 0.90622,9.74838 9.7304,9.74838 h 16.53919 c 8.82418,0 9.7304,-0.90625 9.7304,-9.74838 V 84 71.74838 C 362.00067,62.90625 361.09445,62 352.27027,62 Z"
     style="color:#000000;display:inline;overflow:visible;visibility:visible;opacity:0.4;fill:none;fill-opacity:1;fill-rule:nonzero;stroke:url(#linearGradient1004);stroke-width:2;stroke-miterlimit:4;stroke-dasharray:none;stroke-opacity:1;marker:none;enable-background:accumulate"
     clip-path="url(#clipPath994-0-3)" />
</svg>
